X:1
T:We'll Ranzo Ray
M:4/4
L:1/8
K:Eb
 z2 B,2 C2 D2| E2E-D B,2 C3/2 D/2|E-GB-GF-D B, F/2G/2| A2 GF G2 FE|\
 F2 B2 B,2G-A| B2B-G A2 AF|E-FE-CB,-CD-B,| E2 E2F-G AF| G2 F2 E4|
